favicon.svg

<svg width="192" height="192" viewBox="0 0 192 192" fill="none" xmlns="http://www.w3.org/2000/svg">
<rect width="192" height="192" rx="44" fill="url(#paint0_linear_1301_2)"/>
<path d="M164.493 52C158.993 43 144.493 42 123.493 49C115.493 44 105.993 41 95.4934 41C64.9935 41 40.4936 65.4999 40.4936 95.9998C40.4936 97.9998 40.4936 99.9998 40.9936 102C26.9936 117.5 21.9936 130.5 27.4936 139C30.9936 144.5 36.9936 146.5 44.9936 146.5C62.4935 146.5 88.9934 135.5 111.993 120.5C129.493 109.5 144.993 96.4998 154.493 83.9998C168.993 67.4999 167.993 57.4999 164.493 52ZM35.9936 134C33.9936 131 35.9936 124 43.9936 114.5C46.9935 122.5 51.4935 129.5 57.4935 135.5C45.9936 138 37.9936 137.5 35.9936 134ZM147.493 77.9999C144.493 69.4999 139.993 61.9999 133.493 55.9999C146.493 53 153.993 54 155.993 56.9999C157.993 59.9999 156.493 66.9999 147.493 77.9999Z" fill="#EBEFFF"/>
<path d="M74.4927 147C80.9927 149.5 87.9926 151 95.4926 151C124.492 151 147.992 128.5 150.492 100C140.992 109 129.492 118 117.493 126C102.493 135 87.9926 142.5 74.4927 147Z" fill="#79AAFF"/>
<defs>
<linearGradient id="paint0_linear_1301_2" x1="96" y1="0" x2="96" y2="192" gradientUnits="userSpaceOnUse">
<stop stop-color="#0866FF"/>
<stop offset="1" stop-color="#0042AD"/>
</linearGradient>
</defs>
</svg>

<svg xmlns="http://www.w3.org/2000/svg" width="192" height="192" fill="none" viewBox="0 0 192 192"><rect width="192" height="192" fill="url(#a)" rx="44"/><path fill="#ebefff" d="M164.493 52c-5.5-9-20-10-41-3-8-5-17.5-8-28-8-30.5 0-55 24.5-55 55 0 2 0 4 .5 6-14 15.5-19 28.5-13.5 37 3.5 5.5 9.5 7.5 17.5 7.5 17.5 0 44-11 67-26 17.5-11 33-24 42.5-36.5 14.5-16.5 13.5-26.5 10-32m-128.5 82c-2-3 0-10 8-19.5q4.5 12 13.5 21c-11.5 2.5-19.5 2-21.5-1.5m111.5-56c-3-8.5-7.5-16-14-22 13-3 20.5-2 22.5 1s.5 10-8.5 21"/><path fill="#79aaff" d="M74.493 147c6.5 2.5 13.5 4 21 4 28.999 0 52.499-22.5 54.999-51-9.5 9-21 18-32.999 26-15 9-29.5 16.5-43 21"/><defs><linearGradient id="a" x1="96" x2="96" y1="0" y2="192" gradientUnits="userSpaceOnUse"><stop stop-color="#0866ff"/><stop offset="1" stop-color="#0042ad"/></linearGradient></defs></svg>
